X:1
T:I Will Set My Ship In Order
M:3/4
L:1/8
K:A
 EEE| E3C/2-E/2 FE|E-A AA dc| B3F/2-A/2 FE| E2 z EE E| E2 z|C/2-E/2 FEE-A A|\
 Adc B2 F| AFE E2 z|||

